svgs/airbnb.svg

<svg width="192" height="192" viewBox="0 0 192 192" fill="none" xmlns="http://www.w3.org/2000/svg">
<g clip-path="url(#clip0_135_6)">
<path d="M95.9991 22C87.3061 22.006 79.3921 27.016 75.6651 34.87C64.5971 58.486 42.2691 105.33 31.2011 128.819C29.3861 132.637 28.4401 136.815 28.4341 141.044C28.4341 157.038 41.3971 170.001 57.3911 170.001C81.1351 170.001 118.52 130.171 118.52 102.437C118.52 89.999 108.438 79.916 96.0001 79.916C83.5611 79.916 73.4791 89.999 73.4791 102.437C73.4791 130.171 110.864 170.001 134.608 170.001C150.6 170.001 163.565 157.038 163.565 141.044C163.559 136.815 162.614 132.64 160.797 128.819C149.731 105.331 127.465 58.486 116.399 34.999C112.698 27.072 104.745 22.003 95.9991 22Z" stroke="black" stroke-width="12" stroke-linecap="round" stroke-linejoin="round"/>
</g>
<defs>
<clipPath id="clip0_135_6">
<rect width="192" height="192" fill="white"/>
</clipPath>
</defs>
</svg>

<?xml version="1.0" encoding="utf-8"?>
<!-- Generator: Adobe Illustrator 16.0.0, SVG Export Plug-In . SVG Version: 6.00 Build 0)  -->
<!DOCTYPE svg PUBLIC "-//W3C//DTD SVG 1.1//EN" "http://www.w3.org/Graphics/SVG/1.1/DTD/svg11.dtd">
<svg version="1.1" id="图层_1" xmlns="http://www.w3.org/2000/svg" xmlns:xlink="http://www.w3.org/1999/xlink" x="0px" y="0px"
	 width="192px" height="192px" viewBox="0 0 192 192" enable-background="new 0 0 192 192" xml:space="preserve">
<g>
	<path fill="none" stroke="#231815" stroke-width="12" stroke-linecap="round" stroke-linejoin="round" d="M95.999,22
		c-8.693,0.006-16.607,5.016-20.334,12.87c-11.068,23.616-33.396,70.46-44.464,93.949c-1.815,3.818-2.761,7.996-2.767,12.225
		c0,15.994,12.963,28.957,28.957,28.957c23.744,0,61.129-39.83,61.129-67.564c0-12.438-10.082-22.521-22.52-22.521
		c-12.439,0-22.521,10.083-22.521,22.521c0,27.734,37.385,67.564,61.129,67.564c15.992,0,28.957-12.963,28.957-28.957
		c-0.006-4.229-0.951-8.404-2.768-12.225c-11.066-23.488-33.332-70.333-44.398-93.82C112.698,27.072,104.745,22.003,95.999,22z"/>
</g>
</svg>
